svgs/solid/stethoscope.svg

<svg xmlns="http://www.w3.org/2000/svg" viewBox="0 0 576 512"><!-- Font Awesome Pro 6.0.0-alpha2 by @fontawesome - https://fontawesome.com License - https://fontawesome.com/license (Commercial License) --><path d="M480 112.004C435.816 112.004 400 147.822 400 192.008C400 224.848 419.824 252.998 448.125 265.324V343.994C448.125 401.246 397.875 447.998 336.125 447.998C276.125 447.998 226.875 403.871 224.25 348.744C297 333.744 352 269.24 352 191.988V36.607C352 25.232 343.875 15.232 332.75 13.107L269.75 0.48C256.75 -2.145 244.25 6.232 241.625 19.232L238.375 34.982C235.75 47.982 244.25 60.609 257.25 63.234L287.875 69.234V190.738C287.875 243.615 245.75 287.367 192.75 287.867C139.375 288.367 95.875 245.24 95.875 191.863V69.359L126.625 63.234C139.625 60.734 148 48.107 145.375 35.107L142.25 19.357C139.75 6.357 127.125 -2.02 114.125 0.605L51.25 12.982C40.125 15.232 32 25.107 32 36.607V191.988C32 269.24 87.125 333.994 160.125 348.744C162.75 439.248 240.625 512 336 512C433 512 512 436.623 512 343.994V265.256C540.232 252.9 560 224.797 560 192.008C560 147.822 524.184 112.004 480 112.004ZM480 216C466.746 216 456 205.254 456 192S466.746 168 480 168S504 178.746 504 192S493.254 216 480 216Z"/></svg>

<svg xmlns="http://www.w3.org/2000/svg" viewBox="0 0 576 512"><!--! Font Awesome Pro 6.0.0-alpha3 by @fontawesome - https://fontawesome.com License - https://fontawesome.com/license (Commercial License) --><path d="M480 112c-44.18 0-80 35.82-80 80c0 32.84 19.81 60.98 48.11 73.31v78.7c0 57.25-50.25 104-112 104c-60 0-109.3-44.1-111.9-99.23C296.1 333.8 352 269.3 352 191.1V36.59c0-11.38-8.15-21.38-19.28-23.5L269.8 .4775c-13-2.625-25.54 5.766-28.16 18.77L238.4 34.99c-2.625 13 5.812 25.59 18.81 28.22l30.69 6.059L287.9 190.7c0 52.88-42.13 96.63-95.13 97.13c-53.38 .5-96.81-42.56-96.81-95.93L95.89 69.37l30.72-6.112c13-2.5 21.41-15.15 18.78-28.15L142.3 19.37c-2.5-13-15.15-21.41-28.15-18.78L51.28 12.99C40.15 15.24 32 25.09 32 36.59v155.4c0 77.25 55.11 142 128.1 156.8C162.7 439.3 240.6 512 336 512c97 0 176-75.37 176-168V265.3c28.23-12.36 48-40.46 48-73.25C560 147.8 524.2 112 480 112zM480 216c-13.25 0-24-10.75-24-24S466.7 168 480 168S504 178.7 504 192S493.3 216 480 216z"/></svg>
